X:1
T:Eichendorff-Lieder
T:Der Musikant
T:Eichendorff-Lieder
T:2. Der Musikant
T:Hugo Wolf
T:Joseph von Eichendorff
T:OpenScore (CC0)
T:OpenScore (CC0)
T:OpenScore (CC0)
C:Hugo Wolf
Z:Joseoh von Eichendorff
Z:OpenScore (CC0)
%%score 1 { ( 2 3 ) | ( 4 5 ) }
L:1/8
Q:1/4=75
M:2/4
K:A
V:1 treble nm="Voice"
V:2 treble nm="Piano"
V:3 treble 
V:4 treble 
V:5 treble 
V:1
"^Sehr mässig" z4 | z4 | z4 | z4 |[K:A][K:treble] c A E3/2 E/ | E c B3/2 G/ | F d c3/2 e/ | %7
w: ||||Wand- dern lieb' ich|für mein Le- ben,|le- be e- ben,|
w: ||||Oh what joy thro'|life to wan- der;|tho' I've nei- ther|
 c A B2 | c A E3/2 E/ | E c B3/2 G/ | F d c3/2 e/ | c B A2 | z4 | z4 | z4 | z4 | B B B3/2 B/ | %17
w: wie ich kann,|wollt' ich mir auch|Mü- he ge- ben,|passt es mir doch|gar nicht an.|||||Schö- ne al- te|
w: home nor wealth,|yet I know, tho'|oft I pon- der:|there's no wealth like|sove- reign health.|||||And I sing; with|
 B B c3/2 ^d/ | B c ^d3/2 e/ | ^d d d2 | B B B3/2 B/ | B B c3/2 ^d/ | %22
w: Lie- der weiss ich,|in der Käl- te,|oh- ne Schuh',|drau- ssen in die|Sai- ten reiss' ich,|
w: voice me- lo- dious,|fine old songs, mid|ice and snow,|gai- ly pluck the|strings har- mo- nious;|
 B e[Q:1/4=72]"^poco rit." ^d3/2[Q:1/4=64] ^D/[Q:1/4=68] | ^D D[Q:1/4=75]"^a tempo" D2 | z4 | z4 | %26
w: weiss nicht, wo ich|a- bends ruh'!|||
w: where I'll rest I|ne- ver know!|||
 z4 | z4 | c A E3/2 E/ | E c B3/2 G/ |!<(! F!mf! d/!<)! z/!p! c3/2 e/ | c A B2 | c A E3/2 E/ | %33
w: ||Man- che Schö- ne|macht wohl Au- gen,|mein- et, ich ge-|fiel' ihr sehr,|wenn ich nur was|
w: ||Many a maid, if|I would let her,|glad- ly she would|an- swer: "Yea!|if you'd learn a|
 E c B3/2 G/ |!<(! F d!<)!!mf! c3/2 e/ | c B A2 | z4 | z4 | z4 | z4 |!f! B B c3/2 ^d/ | %41
w: woll- te tau- gen,|so ein ar- mer|Lump nicht wär'.|||||Mag dir Gott ein'n|
w: trade that's bet- ter|than to sing and|play all day!"|||||Hap- ly Heaven may|
 B B c3/2 ^d/ | B c[Q:1/4=71]"^dim."!>(! ^d3/2 G/[Q:1/4=68] | %43
w: Mann be- sche- ren,|wohl mit Haus und|
w: send an- o- ther,|with a gold- en|
[Q:1/4=65] ^^F[Q:1/4=62] ^A[Q:1/4=60] G2!>)! |!p![Q:1/4=75]"^a tempo" c A E3/2 E/ | E c B3/2 G/ | %46
w: Hof ver- sehn!|Wenn wir zwei zu-|sam- men wä- ren,|
w: wed- ding- ring!|If we two e'er|lived to- geth- er,|
 F d!mp! c3/2 e/ | c B A2 | z4 | z4 | z4 | z4 |] %52
w: möcht' mein Sin- gen|mir ver- geh'n.|||||
w: I should soon for-|get to sing.|||||
V:2
!p! (f/g/f/a/ f/e/c/A/) | (f/g/f/a/ f/e/c/A/) | (f/g/f/a/ c'/a/f/e/ | %3
 c/A/F/=F/) !fermata![EGBe] z |!p! [CE][Cc] (B/e/c/B/) | [CE][Cc] (B/e/c/B/) | Af- (f/a/f/e/ | %7
 c/A/F/=F/) (Be/) z/ | [CE][Cc] (B/e/c/B/) | [CE][Cc] (B/e/c/B/) | Af- (f/a/f/e/ | c/A/F/G/ A2) | %12
 (f/g/f/a/ f/e/c/A/) |!<(! (f/g/f/a/ f/e/c/!<)!A/) | (f/g/f/a/!mf! c'/!>(!a/e/f/ | %15
 c/e/c/!>)!B/ A) z |!p! (B/c/B/e/ c/g/f/^d/) | (B/c/B/e/ c/g/f/^d/) | (B/c/B/e/!<(! ^d/b/^a/g/ | %19
 ^^f/g/^a/c'/ b/c'/^d'/!<)!g'/) |!mf! (B/c/B/e/ c/g/f/^d/) | (B/c/B/e/ c/g/f/^d/) | %22
!p! (B/c/B/e/ ^d/b/^a/g/ | ^^f/g/^a/c'/!<(! ^b/c'/^d'/g'/-)!<)! | %24
!mf!!>(! (g'/^^f'/^f'/c'/-!>)!!p!!<(! c'/^b/^d'/g'/-)!<)! | %25
!mf!!>(! (g'/^^f'/^f'/c'/-!>)!!p!!<(! c'/^b/^d'/g'/-)!<)! | %26
!mf!!>(! (g'/^^f'/^f'/c'/- c'/=c'/b/g/- | g/b/g/f/!>)! e) z |!p! [CE][Cc] (B/e/c/B/) | %29
 [CE][Cc] (B/e/c/B/) | Af- (f/a/f/e/ | c/A/F/=F/) (Be/) z/ | [CE][Cc] (B/e/c/B/) | %33
 [CE][Cc] (B/e/c/B/) |!mf! A=f- (f/a/^f/e/ | c/A/F/G/ A2) |!f! (f/g/f/a/ f/e/c/A/) | %37
 (f/g/f/a/ f/e/c/A/) | (f/g/!>(!f/a/ c'/a/e/f/ | c/e/!>)!!p!c/B/ A) z |!mf! (B/c/B/e/ c/g/f/^d/) | %41
 (B/c/B/e/ c/g/f/^d/) |!<(! (B/c/B/e/!<)!!f!!>(!"_dim." ^d/b/^a/g/ | ^^f/e/^d/c/ ^B/=B!>)!E/) | %44
!p!"^a tempo" [CE][Cc] (B/e/c/B/) | [CE][Cc] (B/e/c/B/) |!<(! Af-!mf! (f/!<)!!>(!a/f/e/!>)! | %47
!mp! c/A/F/G/ A2) |!p! (f/g/f/a/ f/e/c/A/) |!<(! (f/g/f/a/ f/e/c/!<)!A/) | %50
!mf! (f/g/f/a/!>(! c'/a/e/f/ | c/e/c/B/!>)! A) z |] %52
V:3
 BB z2 | BB z2 | BB z2 | x4 | x2 D2 | x2 D2 | FF A2 | x2 [DE]2 | x2 D2 | x2 D2 | FF A2 | z D C2 | %12
 BB z2 | BB z2 | BB z2 | x4 | GG A2 | GG A2 | GG B2 | cc ^d2 | GG A2 | GG A2 | GG B2 | cc g2 | x4 | %25
 x4 | x4 | x4 | x2 D2 | x2 D2 | FF A2 | x2 [DE]2 | x2 D2 | x2 D2 | F=F A2 | z D C2 | BB z2 | %37
 BB z2 | BB z2 | x4 | GG A2 | GG A2 | GG B2 | c^^F (^D=D) | x2 D2 | x2 D2 | FF A2 | z D C2 | %48
 BB z2 | BB z2 | BB z2 | x4 |] %52
V:4
 [^DA][DA] [EA] z | [^DA][DA] [EA] z | [^DA][DA] [EA]2 | z2[K:bass] !arpeggio!!fermata![E,B,D] z | %4
 [A,,E,][A,,E,] [A,,G,]2 | [A,,E,][A,,E,] [A,,E,]2 | [A,,D,A,][A,,D,A,] [A,,E,A,]2 | %7
 [A,,E,A,][A,,E,A,] [A,,G,]2 | [A,,E,][A,,E,] [A,,G,]2 | [A,,E,][A,,E,] [A,,E,]2 | %10
 [A,,D,A,][A,,D,A,] [A,,E,A,]2 | [E,A,][E,B,] [A,,E,]2 |[K:treble] [^DA][DA] [EA] z | %13
 [^DA][DA] [EA] z | [^DA][DA] [EA]2 |[K:bass] z!p! [E,G,=D][A,C] z | [E,,B,,][E,,B,,] [E,,B,,]2 | %17
 [E,,B,,][E,,B,,] [E,,B,,]2 | [E,,B,,][E,,B,,] [^D,,G,,^D,]2 | %19
 [^D,,^A,,^D,][D,,A,,D,] [D,,G,,D,]2 | %20
 !arpeggio![E,,B,,E,]!arpeggio![E,,B,,E,] !arpeggio![E,,B,,E,]2 | %21
 !arpeggio![E,,B,,E,]!arpeggio![E,,B,,E,] !arpeggio![E,,B,,E,]2 | %22
 [E,B,][C,G,C]"^poco rit." [^D,G,^D]2 | [^D,^A,][D,A,]"^a tempo" [G,,D,]2 | %24
[K:treble] !>![A,CA][A,CA] [G^d]2 | !>![A,CA][A,CA] [G^d]2 | [A,CA][^A,^^F^A] [B,GB]2 | %27
 [B,GB][B,^DA] [EG] z |[K:bass] [A,,E,][A,,E,] [A,,G,]2 | [A,,E,][A,,E,] [A,,E,]2 | %30
 [A,,D,A,][A,,D,A,] [A,,E,A,]2 | [A,,E,A,][A,,E,A,] [A,,G,]2 | [A,,E,][A,,E,] [A,,G,]2 | %33
 [A,,E,][A,,E,] [A,,E,]2 | [A,,D,A,][A,,D,A,] [A,,E,A,]2 | [E,A,][E,B,] [A,,E,]2 | %36
[K:treble] [^DA][DA] [EA] z | [^DA][DA] [EA] z | [^DA][DA] [EA]2 |[K:bass] z [E,G,=D][A,C] z | %40
 [E,,B,,][E,,B,,] [E,,B,,]2 | [E,,B,,][E,,B,,] [E,,B,,]2 | [E,,B,,][E,,B,,] [^D,,G,,^D,]2 | %43
 [^D,,^A,,^D,][D,,A,,D,]!p! (D,E,) | [A,,E,][A,,E,] [A,,G,]2 | [A,,E,][A,,E,] [A,,E,]2 | %46
 [A,,D,A,][A,,D,A,] [A,,E,A,]2 | [E,A,][E,B,] [A,,E,]2 |[K:treble] [^DA][DA] [EA] z | %49
 [^DA][DA] [EA] z | [^DA][DA] [EA]2 |[K:bass] z!p! [E,G,=D][A,C] z |] %52
V:5
 x4 | x4 | x4 | x2[K:bass] x2 | x4 | x4 | x4 | x4 | x4 | x4 | x4 | x4 |[K:treble] x4 | x4 | x4 | %15
[K:bass] x4 | x4 | x4 | x4 | x4 | x4 | x4 | x4 | x4 |[K:treble] x4 | x4 | x4 | x4 |[K:bass] x4 | %29
 x4 | x4 | x4 | x4 | x4 | x4 | x4 |[K:treble] x4 | x4 | x4 |[K:bass] x4 | x4 | x4 | x4 | x2 G,,2 | %44
 x4 | x4 | x4 | x4 |[K:treble] x4 | x4 | x4 |[K:bass] x4 |] %52

